usr/share/icons/biglinux-icons-material/22/actions/media-playlist-normal.svg

<svg xmlns="http://www.w3.org/2000/svg" viewBox="0 0 22 22"><path d="M16 5v2H3v1h13v2l3-2.5L16 5zm0 7v2H3v1h13v2l3-2.5-3-2.5z" style="fill:currentColor;fill-opacity:1;stroke:none;color:#dedede"/></svg>

<svg xmlns="http://www.w3.org/2000/svg" viewBox="0 0 22 22">
  <defs id="defs3051">
    <style type="text/css" id="current-color-scheme">
      .ColorScheme-Text {
        color:#dedede;
      }
      </style>
  </defs>
 <path 
    style="fill:currentColor;fill-opacity:1;stroke:none" 
    d="M 16 5 L 16 7 L 3 7 L 3 8 L 16 8 L 16 10 L 19 7.5 L 16 5 z M 16 12 L 16 14 L 3 14 L 3 15 L 16 15 L 16 17 L 19 14.5 L 16 12 z "
    class="ColorScheme-Text"
    />  
</svg>
